public/images/logo.svg

<?xml version="1.0" encoding="UTF-8"?>
<svg width="213px" height="51px" viewBox="0 0 213 51" version="1.1" xmlns="http://www.w3.org/2000/svg" xmlns:xlink="http://www.w3.org/1999/xlink">
    <!-- Generator: Sketch 50.2 (55047) - http://www.bohemiancoding.com/sketch -->
    <title>logo</title>
    <desc>Created with Sketch.</desc>
    <defs>
        <polygon id="path-1" points="0.170707219 0.13459073 22.125096 0.13459073 22.125096 21.725361 0.170707219 21.725361"></polygon>
        <polygon id="path-3" points="0.0541163934 0.13459073 22.0072574 0.13459073 22.0072574 21.725361 0.0541163934 21.725361"></polygon>
        <polygon id="path-5" points="0 49.865932 211.433341 49.865932 211.433341 0.345690335 0 0.345690335"></polygon>
    </defs>
    <g id="Symbols" stroke="none" stroke-width="1" fill="none" fill-rule="evenodd">
        <g id="Menu" transform="translate(-200.000000, -24.000000)">
            <g id="logo" transform="translate(201.000000, 25.000000)">
                <path d="M18.5312883,18.0541716 C16.6170599,20.6022485 13.4037518,22.0069576 10.2566305,21.9742899 C4.67487022,21.942929 -0.126923077,17.2701479 0.00285512034,11.0946548 C0.00285512034,6.1291716 3.70153374,1.58706114 8.66684757,0.639699211 C9.15351581,0.574363905 9.76996225,0.541696252 10.3539641,0.541696252 C13.1766399,0.541696252 16.1952808,1.52172584 17.979731,3.61245562 C18.9530675,4.75582347 17.2983955,6.32387081 16.2926144,5.14783531 C14.4744219,3.02443787 11.4570788,2.27308185 9.02373761,2.89376726 C5.45483719,3.74312623 2.33886267,6.91319527 2.33886267,11.1926578 C2.40375177,15.8001036 6.10372817,19.6548866 10.289075,19.7528895 C12.6899717,19.7855572 15.1894998,18.7401923 16.6170599,16.8128008 L16.6170599,12.4666963 L10.7757433,12.4666963 C9.25084946,12.4666963 9.4130722,10.3106312 10.7757433,10.3106312 L17.6552855,10.3106312 C18.5961774,10.3106312 18.8881784,10.800646 18.8881784,11.5193343 L18.8881784,16.9761391 C18.8881784,17.3354832 18.8232893,17.7601627 18.5312883,18.0541716" id="Fill-1" stroke="#222F50" fill="#2D2F4A"></path>
                <path d="M26.5781855,14.3947411 L26.5781855,20.7335725 C26.5781855,22.2362845 24.2097334,22.2362845 24.2097334,20.7662401 L24.2097334,2.01108728 C24.2097334,1.32506657 24.6964016,0.867719428 25.4101817,0.867719428 L33.1008377,0.867719428 C38.7150425,0.867719428 41.5701628,4.07045611 41.5701628,7.8925715 C41.5701628,11.1920044 39.7857126,13.5780498 35.7937353,14.2640705 L41.05105,19.9822165 C42.2839429,21.2235873 40.4994927,22.660964 39.4288226,21.5502638 L32.8737258,14.3947411 L26.5781855,14.3947411 Z M26.5781855,12.336679 L33.1332822,12.336679 C37.384816,12.336679 39.2341553,10.3426455 39.1692662,7.8925715 C39.1368216,5.21382396 36.8981477,3.05775888 33.1332822,3.05775888 L26.5781855,3.05775888 L26.5781855,12.336679 Z" id="Fill-3" stroke="#222F50" fill="#2D2F4A"></path>
                <path d="M47.8650543,19.5243466 L60.6832468,19.5243466 C62.0459179,19.5243466 62.2405852,21.6804117 60.6832468,21.6804117 L47.021496,21.6804117 C46.1130486,21.6804117 45.5290467,21.0270587 45.5290467,20.243035 L45.5290467,2.30588018 C45.5290467,1.55452416 46.1130486,0.901171105 47.021496,0.901171105 L60.7156914,0.901171105 C62.110807,0.901171105 62.0459179,2.99190089 60.6832468,2.99190089 L47.8650543,2.99190089 L47.8650543,10.3434295 L60.0655026,10.3434295 C61.3645824,10.3434295 61.4281737,12.4341593 60.0655026,12.4341593 L47.8650543,12.4341593 L47.8650543,19.5243466 Z" id="Fill-5" stroke="#222F50" fill="#2D2F4A"></path>
                <g id="Group-9" transform="translate(63.591317, 0.211100)">
                    <mask id="mask-2" fill="white">
                        <use xlink:href="#path-1"></use>
                    </mask>
                    <g id="Clip-8"></g>
                    <path d="M5.04123407,15.9804931 L2.41322558,21.143289 C1.82922369,22.3519921 -0.313414346,21.5026331 0.270587541,20.195927 L10.071437,0.754753452 C10.2661043,0.330073964 10.720328,0.134068047 11.1421071,0.134068047 C11.5638863,0.134068047 11.9532209,0.330073964 12.1803327,0.754753452 L21.9474398,20.0979241 C22.7909981,21.5026331 20.3901015,22.3193245 19.773655,21.045286 L17.2429802,15.9804931 L5.04123407,15.9804931 Z M11.1421071,3.63081361 L6.01457055,13.922431 L16.2371992,13.922431 L11.1421071,3.63081361 Z" id="Fill-7" stroke="#222F50" fill="#2D2F4A" mask="url(#mask-2)"></path>
                </g>
                <path d="M101.276569,0.86811144 C102.866352,0.86811144 102.866352,3.12217949 101.276569,3.12217949 L94.0401369,3.12217949 C94.0401369,9.00366371 94.0725814,14.9831509 94.0725814,20.8646351 C94.0725814,21.6813264 93.3912459,22.0733383 92.8396885,22.0733383 C92.2881312,22.0733383 91.6716848,21.6813264 91.6716848,20.8646351 L91.6716848,3.12217949 L84.467697,3.12217949 C82.9428032,3.12217949 82.9428032,0.86811144 84.467697,0.86811144 L101.276569,0.86811144 Z" id="Fill-10" stroke="#222F50" fill="#2D2F4A"></path>
                <path d="M114.774799,16.5182692 C115.618358,19.2296844 119.221,19.8190089 121.816564,19.8190089 C124.574351,19.8190089 128.858329,18.9683432 128.858329,15.6689103 C128.858329,12.8268245 125.450354,12.5981509 121.881454,12.304142 C117.402808,11.9434911 112.601015,11.5188116 112.601015,6.65133136 C112.601015,2.33789448 117.532586,0.410502959 121.492119,0.410502959 C124.898797,0.410502959 129.15033,1.22719428 130.513001,4.95261341 C130.99967,6.25931953 128.79344,6.84733728 128.306772,5.73663708 C127.333436,3.25258876 123.860571,2.82790927 121.524563,2.82790927 C119.350779,2.82790927 115.131689,3.7112426 115.131689,6.68399901 C115.131689,9.52608481 118.376144,9.82009369 122.14101,10.1141026 C126.585913,10.5061144 131.35656,10.734788 131.35656,15.6362426 C131.35656,20.6357002 125.807244,22.1710799 121.816564,22.1710799 C118.505923,22.1710799 113.444573,21.027712 112.373903,17.106287 C111.984568,15.6689103 114.515243,15.1788955 114.774799,16.5182692" id="Fill-12" stroke="#222F50" fill="#2D2F4A"></path>
                <path d="M149.528362,0.86811144 C151.118145,0.86811144 151.118145,3.12217949 149.528362,3.12217949 L142.29193,3.12217949 C142.29193,9.00366371 142.324375,14.9831509 142.324375,20.8646351 C142.324375,21.6813264 141.643039,22.0733383 141.091482,22.0733383 C140.539924,22.0733383 139.923478,21.6813264 139.923478,20.8646351 L139.923478,3.12217949 L132.71949,3.12217949 C131.194597,3.12217949 131.194597,0.86811144 132.71949,0.86811144 L149.528362,0.86811144 Z" id="Fill-14" stroke="#222F50" fill="#2D2F4A"></path>
                <g id="Group-18" transform="translate(147.947145, 0.211100)">
                    <mask id="mask-4" fill="white">
                        <use xlink:href="#path-3"></use>
                    </mask>
                    <g id="Clip-17"></g>
                    <path d="M4.92339547,15.9804931 L2.29538697,21.143289 C1.71138509,22.3519921 -0.429955168,21.5026331 0.15404672,20.195927 L9.9535984,0.754753452 C10.1482657,0.330073964 10.6024894,0.134068047 11.0242685,0.134068047 C11.4460477,0.134068047 11.8353823,0.330073964 12.0624941,0.754753452 L21.8296012,20.0979241 C22.6731595,21.5026331 20.2722629,22.3193245 19.6558164,21.045286 L17.1238438,15.9804931 L4.92339547,15.9804931 Z M11.0242685,3.63081361 L5.89673195,13.922431 L16.1193605,13.922431 L11.0242685,3.63081361 Z" id="Fill-16" stroke="#222F50" fill="#2D2F4A" mask="url(#mask-4)"></path>
                </g>
                <path d="M175.487376,14.3947411 L175.487376,20.7335725 C175.487376,22.2362845 173.118924,22.2362845 173.118924,20.7662401 L173.118924,2.01108728 C173.118924,1.32506657 173.605592,0.867719428 174.319372,0.867719428 L182.010028,0.867719428 C187.624233,0.867719428 190.479353,4.07045611 190.479353,7.8925715 C190.479353,11.1920044 188.694903,13.5780498 184.702926,14.2640705 L189.960241,19.9822165 C191.193134,21.2235873 189.408683,22.660964 188.338013,21.5502638 L181.782916,14.3947411 L175.487376,14.3947411 Z M175.487376,12.336679 L182.042473,12.336679 C186.294007,12.336679 188.143346,10.3426455 188.078457,7.8925715 C188.046012,5.21382396 185.807338,3.05775888 182.042473,3.05775888 L175.487376,3.05775888 L175.487376,12.336679 Z" id="Fill-19" stroke="#222F50" fill="#2D2F4A"></path>
                <path d="M210.24055,0.86811144 C211.830333,0.86811144 211.830333,3.12217949 210.24055,3.12217949 L203.004118,3.12217949 C203.004118,9.00366371 203.036562,14.9831509 203.036562,20.8646351 C203.036562,21.6813264 202.355227,22.0733383 201.803669,22.0733383 C201.252112,22.0733383 200.635665,21.6813264 200.635665,20.8646351 L200.635665,3.12217949 L193.431678,3.12217949 C191.906784,3.12217949 191.906784,0.86811144 193.431678,0.86811144 L210.24055,0.86811144 Z" id="Fill-21" stroke="#222F50" fill="#2D2F4A"></path>
                <mask id="mask-6" fill="white">
                    <use xlink:href="#path-5"></use>
                </mask>
                <g id="Clip-24"></g>
                <polygon id="Fill-23" stroke="#222F50" fill="#2D2F4A" mask="url(#mask-6)" points="0.164818311 33.6980572 211.273714 33.6980572 211.273714 32.8356312 0.164818311 32.8356312"></polygon>
                <polygon id="Fill-25" fill="#2D2F4A" mask="url(#mask-6)" points="0 42.503427 5.42213308 42.503427 5.42213308 43.9198964 1.57161397 43.9198964 1.57161397 45.3886341 4.9601227 45.3886341 4.9601227 46.8051036 1.57161397 46.8051036 1.57161397 48.3248028 5.47404436 48.3248028 5.47404436 49.7412722 0 49.7412722"></polygon>
                <path d="M12.4520882,42.4519428 L13.9107952,42.4519428 L16.9904318,49.7420562 L15.3383554,49.7420562 L14.6803799,48.1178205 L11.6409745,48.1178205 L10.9842968,49.7420562 L9.37115385,49.7420562 L12.4520882,42.4519428 Z M14.1158447,46.7118047 L13.1606772,44.3649606 L12.2055097,46.7118047 L14.1158447,46.7118047 Z" id="Fill-26" fill="#2D2F4A" mask="url(#mask-6)"></path>
                <path d="M21.2080934,42.503427 L24.4940774,42.503427 C25.4090137,42.503427 26.1163049,42.7621548 26.5886975,43.2377959 C26.9897121,43.6402613 27.2051439,44.2099852 27.2051439,44.8920858 L27.2051439,44.9129931 C27.2051439,46.0811884 26.579613,46.8155572 25.6646767,47.1566075 L27.4218735,49.7412722 L25.5725342,49.7412722 L24.032067,47.425789 L22.7887919,47.425789 L22.7887919,49.7412722 L21.2080934,49.7412722 L21.2080934,42.503427 Z M24.3915526,46.0197732 C25.1611373,46.0197732 25.603681,45.6055473 25.603681,44.9953156 L25.603681,44.9744083 C25.603681,44.2923077 25.1312883,43.9408037 24.3604059,43.9408037 L22.7887919,43.9408037 L22.7887919,46.0197732 L24.3915526,46.0197732 Z" id="Fill-27" fill="#2D2F4A" mask="url(#mask-6)"></path>
                <polygon id="Fill-28" fill="#2D2F4A" mask="url(#mask-6)" points="31.740243 42.503427 33.3209415 42.503427 33.3209415 48.2947485 36.9054153 48.2947485 36.9054153 49.7412722 31.740243 49.7412722"></polygon>
                <polygon id="Fill-29" fill="#2D2F4A" mask="url(#mask-6)" points="41.8911043 46.887426 39.1281265 42.503427 40.9774658 42.503427 42.6918358 45.4095414 44.4386503 42.503427 46.2347806 42.503427 43.4718027 46.8573718 43.4718027 49.7412722 41.8911043 49.7412722"></polygon>
                <polygon id="Fill-30" fill="#2D2F4A" mask="url(#mask-6)" points="56.5139924 42.503427 58.0946909 42.503427 58.0946909 48.2947485 61.6791647 48.2947485 61.6791647 49.7412722 56.5139924 49.7412722"></polygon>
                <polygon id="Fill-31" fill="#2D2F4A" mask="url(#mask-6)" points="65.978327 42.503427 71.4004601 42.503427 71.4004601 43.9198964 67.549941 43.9198964 67.549941 45.3886341 70.9384497 45.3886341 70.9384497 46.8051036 67.549941 46.8051036 67.549941 48.3248028 71.4523714 48.3248028 71.4523714 49.7412722 65.978327 49.7412722"></polygon>
                <path d="M78.4296366,42.4519428 L79.8883436,42.4519428 L82.9679802,49.7420562 L81.3159037,49.7420562 L80.6579283,48.1178205 L77.6185229,48.1178205 L76.9618452,49.7420562 L75.3487022,49.7420562 L78.4296366,42.4519428 Z M80.0933931,46.7118047 L79.1382256,44.3649606 L78.183058,46.7118047 L80.0933931,46.7118047 Z" id="Fill-32" fill="#2D2F4A" mask="url(#mask-6)"></path>
                <path d="M87.1864205,42.503427 L90.4724044,42.503427 C91.3873407,42.503427 92.0946319,42.7621548 92.5670245,43.2377959 C92.9680392,43.6402613 93.183471,44.2099852 93.183471,44.8920858 L93.183471,44.9129931 C93.183471,46.0811884 92.5579401,46.8155572 91.6430038,47.1566075 L93.3989028,49.7412722 L91.5508613,49.7412722 L90.0103941,47.425789 L88.7671189,47.425789 L88.7671189,49.7412722 L87.1864205,49.7412722 L87.1864205,42.503427 Z M90.3698797,46.0197732 C91.1394644,46.0197732 91.582008,45.6055473 91.582008,44.9953156 L91.582008,44.9744083 C91.582008,44.2923077 91.1096154,43.9408037 90.3387329,43.9408037 L88.7671189,43.9408037 L88.7671189,46.0197732 L90.3698797,46.0197732 Z" id="Fill-33" fill="#2D2F4A" mask="url(#mask-6)"></path>
                <polygon id="Fill-34" fill="#2D2F4A" mask="url(#mask-6)" points="97.7185701 42.503427 99.177277 42.503427 102.545021 46.9592949 102.545021 42.503427 104.106253 42.503427 104.106253 49.7412722 102.760453 49.7412722 99.278504 45.14036 99.278504 49.7412722 97.7185701 49.7412722"></polygon>
                <polygon id="Fill-35" fill="#2D2F4A" mask="url(#mask-6)" points="109.01109 49.7404882 110.591789 49.7404882 110.591789 42.502643 109.01109 42.502643"></polygon>
                <polygon id="Fill-36" fill="#2D2F4A" mask="url(#mask-6)" points="115.494809 42.503427 116.953516 42.503427 120.32126 46.9592949 120.32126 42.503427 121.882492 42.503427 121.882492 49.7412722 120.536692 49.7412722 117.054743 45.14036 117.054743 49.7412722 115.494809 49.7412722"></polygon>
                <path d="M126.397475,46.1431262 L126.397475,46.1235256 C126.397475,44.0654635 127.989854,42.3798126 130.166234,42.3798126 C131.460123,42.3798126 132.241387,42.7300099 132.990208,43.3729093 L131.994809,44.5816124 C131.439358,44.116425 130.946201,43.8485503 130.115621,43.8485503 C128.964488,43.8485503 128.050849,44.8717012 128.050849,46.1013116 L128.050849,46.1235256 C128.050849,47.4459122 128.954106,48.4181016 130.228528,48.4181016 C130.803445,48.4181016 131.317367,48.2730572 131.717084,47.9842751 L131.717084,46.9493639 L130.124705,46.9493639 L130.124705,45.5747091 L133.247168,45.5747091 L133.247168,48.7173373 C132.507433,49.3484763 131.491269,49.865932 130.176616,49.865932 C127.937942,49.865932 126.397475,48.2835108 126.397475,46.1431262" id="Fill-37" fill="#2D2F4A" mask="url(#mask-6)"></path>
                <path d="M143.742202,46.1431262 L143.742202,46.1235256 C143.742202,44.0654635 145.282669,42.3798126 147.491494,42.3798126 C148.846378,42.3798126 149.657492,42.8345464 150.324552,43.4957396 L149.318771,44.6652416 C148.76332,44.1582396 148.198785,43.8485503 147.479814,43.8485503 C146.268983,43.8485503 145.395576,44.8612475 145.395576,46.1013116 L145.395576,46.1235256 C145.395576,47.3635897 146.248218,48.3971943 147.479814,48.3971943 C148.302607,48.3971943 148.806147,48.0665976 149.369384,47.549142 L150.376463,48.5735996 C149.636727,49.3693836 148.815231,49.865932 147.4292,49.865932 C145.313815,49.865932 143.742202,48.2220957 143.742202,46.1431262" id="Fill-38" fill="#2D2F4A" mask="url(#mask-6)"></path>
                <polygon id="Fill-39" fill="#2D2F4A" mask="url(#mask-6)" points="154.746874 42.503427 160.169007 42.503427 160.169007 43.9198964 156.318487 43.9198964 156.318487 45.3886341 159.706996 45.3886341 159.706996 46.8051036 156.318487 46.8051036 156.318487 48.3248028 160.220918 48.3248028 160.220918 49.7412722 154.746874 49.7412722"></polygon>
                <polygon id="Fill-40" fill="#2D2F4A" mask="url(#mask-6)" points="164.734604 42.503427 166.193311 42.503427 169.561055 46.9592949 169.561055 42.503427 171.122286 42.503427 171.122286 49.7412722 169.776487 49.7412722 166.294538 45.14036 166.294538 49.7412722 164.734604 49.7412722"></polygon>
                <polygon id="Fill-41" fill="#2D2F4A" mask="url(#mask-6)" points="177.628197 43.9717727 175.441435 43.9717727 175.441435 42.503035 181.398254 42.503035 181.398254 43.9717727 179.210193 43.9717727 179.210193 49.7421869 177.628197 49.7421869"></polygon>
                <path d="M185.716883,42.503427 L189.002867,42.503427 C189.917803,42.503427 190.625094,42.7621548 191.097487,43.2377959 C191.498502,43.6402613 191.713933,44.2099852 191.713933,44.8920858 L191.713933,44.9129931 C191.713933,46.0811884 191.088403,46.8155572 190.173466,47.1566075 L191.930663,49.7412722 L190.081324,49.7412722 L188.540857,47.425789 L187.297581,47.425789 L187.297581,49.7412722 L185.716883,49.7412722 L185.716883,42.503427 Z M188.900342,46.0197732 C189.669927,46.0197732 190.112471,45.6055473 190.112471,44.9953156 L190.112471,44.9744083 C190.112471,44.2923077 189.640078,43.9408037 188.869195,43.9408037 L187.297581,43.9408037 L187.297581,46.0197732 L188.900342,46.0197732 Z" id="Fill-42" fill="#2D2F4A" mask="url(#mask-6)"></path>
                <polygon id="Fill-43" fill="#2D2F4A" mask="url(#mask-6)" points="196.249033 42.503427 201.671166 42.503427 201.671166 43.9198964 197.820647 43.9198964 197.820647 45.3886341 201.209155 45.3886341 201.209155 46.8051036 197.820647 46.8051036 197.820647 48.3248028 201.723077 48.3248028 201.723077 49.7412722 196.249033 49.7412722"></polygon>
                <path d="M205.743476,48.6867604 L206.677879,47.5603797 C207.324174,48.0974359 208.002914,48.4397929 208.82441,48.4397929 C209.472003,48.4397929 209.861338,48.1810651 209.861338,47.7563856 L209.861338,47.7354783 C209.861338,47.3317061 209.614759,47.1252465 208.413013,46.8155572 C206.965986,46.443146 206.031583,46.0393738 206.031583,44.601997 L206.031583,44.5823964 C206.031583,43.2691568 207.078893,42.4001972 208.547983,42.4001972 C209.595293,42.4001972 210.488167,42.7307939 211.21752,43.3201183 L210.396024,44.5196746 C209.758813,44.0753945 209.133282,43.806213 208.52592,43.806213 C207.921154,43.806213 207.601899,44.0858481 207.601899,44.4373521 L207.601899,44.4582594 C207.601899,44.9339004 207.909474,45.0880917 209.152749,45.4095414 C210.611456,45.7924063 211.432952,46.3190089 211.432952,47.5799803 L211.432952,47.6021943 C211.432952,49.0382643 210.344113,49.8458087 208.794561,49.8458087 C207.705722,49.8458087 206.606501,49.4629438 205.743476,48.6867604" id="Fill-44" fill="#2D2F4A" mask="url(#mask-6)"></path>
            </g>
        </g>
    </g>
</svg>

<svg width="213" height="51" xmlns="http://www.w3.org/2000/svg" xmlns:xlink="http://www.w3.org/1999/xlink"><defs><path id="a" d="M.17.135h21.955v21.59H.171z"/><path id="c" d="M.054.135h21.953v21.59H.054z"/><path id="e" d="M0 49.866h211.433V.346H0z"/></defs><g transform="translate(1 1)" fill="none" fill-rule="evenodd"><path d="M18.531 18.054c-1.914 2.548-5.127 3.953-8.274 3.92C4.675 21.943-.127 17.27.003 11.094.003 6.13 3.702 1.588 8.667.64a13.423 13.423 0 0 1 1.687-.098c2.823 0 5.841.98 7.626 3.07.973 1.144-.682 2.712-1.687 1.536-1.819-2.124-4.836-2.875-7.27-2.254-3.568.85-6.684 4.02-6.684 8.299.065 4.607 3.765 8.462 7.95 8.56 2.401.033 4.9-1.013 6.328-2.94v-4.346h-5.841c-1.525 0-1.363-2.156 0-2.156h6.88c.94 0 1.232.49 1.232 1.208v5.457c0 .36-.065.784-.357 1.078M26.578 14.395v6.339c0 1.502-2.368 1.502-2.368.032V2.011c0-.686.486-1.143 1.2-1.143h7.69c5.615 0 8.47 3.202 8.47 7.025 0 3.299-1.784 5.685-5.776 6.371l5.257 5.718c1.233 1.242-.552 2.679-1.622 1.568l-6.555-7.155h-6.296zm0-2.058h6.555c4.252 0 6.101-1.994 6.036-4.444-.032-2.68-2.27-4.835-6.036-4.835h-6.555v9.279zM47.865 19.524h12.818c1.363 0 1.558 2.156 0 2.156H47.021c-.908 0-1.492-.653-1.492-1.437V2.306c0-.751.584-1.405 1.492-1.405h13.695c1.395 0 1.33 2.09-.033 2.09H47.865v7.352h12.2c1.3 0 1.363 2.091 0 2.091h-12.2v7.09z" stroke="#222F50" fill="#2D2F4A"/><g transform="translate(63.591 .211)"><mask id="b" fill="#fff"><use xlink:href="#a"/></mask><path d="M5.041 15.98l-2.628 5.163c-.584 1.209-2.726.36-2.142-.947L10.07.755c.195-.425.65-.62 1.071-.62.422 0 .811.195 1.038.62l9.767 19.343c.844 1.405-1.557 2.221-2.173.947l-2.531-5.065H5.041zm6.101-12.35L6.015 13.923h10.222L11.142 3.631z" stroke="#222F50" fill="#2D2F4A" mask="url(#b)"/></g><path d="M101.277.868c1.59 0 1.59 2.254 0 2.254H94.04c0 5.882.033 11.861.033 17.743 0 .816-.682 1.208-1.233 1.208-.552 0-1.168-.392-1.168-1.208V3.122h-7.204c-1.525 0-1.525-2.254 0-2.254h16.809zM114.775 16.518c.843 2.712 4.446 3.301 7.042 3.301 2.757 0 7.041-.85 7.041-4.15 0-2.842-3.408-3.07-6.977-3.365-4.478-.36-9.28-.785-9.28-5.653 0-4.313 4.932-6.24 8.891-6.24 3.407 0 7.658.816 9.021 4.542.487 1.306-1.72 1.894-2.206.784-.974-2.484-4.446-2.91-6.782-2.91-2.174 0-6.393.884-6.393 3.857 0 2.842 3.244 3.136 7.009 3.43 4.445.392 9.216.62 9.216 5.522 0 5-5.55 6.535-9.54 6.535-3.311 0-8.372-1.143-9.443-5.065-.39-1.437 2.141-1.927 2.4-.588M149.528.868c1.59 0 1.59 2.254 0 2.254h-7.236c0 5.882.032 11.861.032 17.743 0 .816-.681 1.208-1.233 1.208-.551 0-1.168-.392-1.168-1.208V3.122h-7.204c-1.524 0-1.524-2.254 0-2.254h16.81z" stroke="#222F50" fill="#2D2F4A"/><g transform="translate(147.947 .211)"><mask id="d" fill="#fff"><use xlink:href="#c"/></mask><path d="M4.923 15.98l-2.628 5.163c-.584 1.209-2.725.36-2.141-.947L9.954.755c.194-.425.648-.62 1.07-.62.422 0 .811.195 1.038.62l9.768 19.343c.843 1.405-1.558 2.221-2.174.947l-2.532-5.065h-12.2zm6.101-12.35L5.897 13.923h10.222L11.024 3.631z" stroke="#222F50" fill="#2D2F4A" mask="url(#d)"/></g><path d="M175.487 14.395v6.339c0 1.502-2.368 1.502-2.368.032V2.011c0-.686.487-1.143 1.2-1.143h7.691c5.614 0 8.47 3.202 8.47 7.025 0 3.299-1.785 5.685-5.777 6.371l5.257 5.718c1.233 1.242-.551 2.679-1.622 1.568l-6.555-7.155h-6.296zm0-2.058h6.555c4.252 0 6.101-1.994 6.036-4.444-.032-2.68-2.27-4.835-6.036-4.835h-6.555v9.279zM210.24.868c1.59 0 1.59 2.254 0 2.254h-7.236c0 5.882.033 11.861.033 17.743 0 .816-.682 1.208-1.233 1.208-.552 0-1.168-.392-1.168-1.208V3.122h-7.204c-1.525 0-1.525-2.254 0-2.254h16.809z" stroke="#222F50" fill="#2D2F4A"/><mask id="f" fill="#fff"><use xlink:href="#e"/></mask><path stroke="#222F50" fill="#2D2F4A" mask="url(#f)" d="M.165 33.698h211.109v-.862H.164z"/><path fill="#2D2F4A" mask="url(#f)" d="M0 42.503h5.422v1.417h-3.85v1.469H4.96v1.416H1.572v1.52h3.902v1.416H0zM12.452 42.452h1.459l3.08 7.29h-1.653l-.658-1.624h-3.039l-.657 1.624H9.371l3.081-7.29zm1.664 4.26l-.955-2.347-.955 2.347h1.91zM21.208 42.503h3.286c.915 0 1.622.26 2.095.735.4.402.616.972.616 1.654v.021c0 1.168-.625 1.903-1.54 2.244l1.757 2.584h-1.85l-1.54-2.315H22.79v2.315h-1.58v-7.238zm3.184 3.517c.77 0 1.212-.414 1.212-1.025v-.02c0-.683-.473-1.034-1.244-1.034H22.79v2.079h1.603zM31.74 42.503h1.58v5.792h3.585v1.446H31.74zM41.891 46.887l-2.763-4.384h1.85l1.714 2.907 1.747-2.907h1.796l-2.763 4.354v2.884h-1.58zM56.514 42.503h1.58v5.792h3.585v1.446h-5.165zM65.978 42.503H71.4v1.417h-3.85v1.469h3.388v1.416H67.55v1.52h3.902v1.416h-5.474zM78.43 42.452h1.458l3.08 7.29h-1.652l-.658-1.624h-3.04l-.656 1.624h-1.613l3.08-7.29zm1.663 4.26l-.955-2.347-.955 2.347h1.91zM87.186 42.503h3.286c.915 0 1.623.26 2.095.735.401.402.616.972.616 1.654v.021c0 1.168-.625 1.903-1.54 2.244l1.756 2.584H91.55l-1.54-2.315h-1.244v2.315h-1.58v-7.238zm3.184 3.517c.77 0 1.212-.414 1.212-1.025v-.02c0-.683-.472-1.034-1.243-1.034h-1.572v2.079h1.603zM97.719 42.503h1.458l3.368 4.456v-4.456h1.561v7.238h-1.346l-3.481-4.6v4.6h-1.56zM109.011 49.74h1.58v-7.237h-1.58zM115.495 42.503h1.459l3.367 4.456v-4.456h1.561v7.238h-1.345l-3.482-4.6v4.6h-1.56zM126.397 46.143v-.02c0-2.058 1.593-3.743 3.77-3.743 1.293 0 2.074.35 2.823.993l-.995 1.209c-.556-.466-1.049-.733-1.88-.733-1.15 0-2.064 1.023-2.064 2.252v.023c0 1.322.903 2.294 2.178 2.294.574 0 1.088-.145 1.488-.434V46.95h-1.592v-1.374h3.122v3.142c-.74.631-1.756 1.149-3.07 1.149-2.24 0-3.78-1.582-3.78-3.723M143.742 46.143v-.02c0-2.058 1.54-3.743 3.75-3.743 1.354 0 2.165.455 2.833 1.116l-1.006 1.17c-.556-.508-1.12-.817-1.84-.817-1.21 0-2.083 1.012-2.083 2.252v.023c0 1.24.852 2.273 2.084 2.273.823 0 1.326-.33 1.89-.848l1.006 1.025c-.74.795-1.56 1.292-2.947 1.292-2.115 0-3.687-1.644-3.687-3.723M154.747 42.503h5.422v1.417h-3.85v1.469h3.388v1.416h-3.389v1.52h3.903v1.416h-5.474zM164.735 42.503h1.458l3.368 4.456v-4.456h1.561v7.238h-1.346l-3.481-4.6v4.6h-1.56zM177.628 43.972h-2.187v-1.469h5.957v1.469h-2.188v5.77h-1.582zM185.717 42.503h3.286c.915 0 1.622.26 2.094.735.402.402.617.972.617 1.654v.021c0 1.168-.626 1.903-1.54 2.244l1.757 2.584h-1.85l-1.54-2.315h-1.243v2.315h-1.581v-7.238zm3.183 3.517c.77 0 1.212-.414 1.212-1.025v-.02c0-.683-.472-1.034-1.243-1.034h-1.571v2.079h1.602zM196.249 42.503h5.422v1.417h-3.85v1.469h3.388v1.416h-3.388v1.52h3.902v1.416h-5.474zM205.743 48.687l.935-1.127c.646.537 1.325.88 2.146.88.648 0 1.037-.259 1.037-.684v-.02c0-.404-.246-.61-1.448-.92-1.447-.373-2.381-.777-2.381-2.214v-.02c0-1.313 1.047-2.182 2.516-2.182 1.047 0 1.94.33 2.67.92l-.822 1.2c-.637-.445-1.263-.714-1.87-.714-.605 0-.924.28-.924.631v.021c0 .476.307.63 1.55.952 1.46.382 2.281.909 2.281 2.17v.022c0 1.436-1.089 2.244-2.638 2.244a4.557 4.557 0 0 1-3.052-1.16"/></g></svg>
